DevCon_2019/Icons/SVG/icon_github.svg

<svg height="21" viewBox="0 0 21 21" width="21" xmlns="http://www.w3.org/2000/svg"><path d="m20.3085775 29.4082081c0 .109375-.0751949.1708983-.2255854.1845699s-.2255854-.0341794-.2255854-.1435544c0-.1093749.0683594-.1640621.2050777-.1640621.082031 0 .1435543.0136717.1845698.0410156.0410156.0273439.0615233.0546871.0615233.082031zm-1.2714813-.1640621c.0273439-.1093749.1093749-.1435543.2460931-.1025388.1367183.0410155.1982415.0957027.1845699.1640621s-.0478516.1162104-.1025388.1435543-.109375.0273439-.1640621 0c-.0546872-.0273439-.1025388-.0615233-.1435544-.1025388-.0410155-.0410155-.0478516-.0751949-.0205077-.1025388zm1.8046832-.0820311c.1367182 0 .2119137.0410156.2255854.1230466.0136716.0820311-.0478517.1503905-.1845699.2050777-.0546872 0-.1025388-.0068362-.1435543-.0205078-.0410156-.0136716-.0683595-.0615233-.0820311-.1435543-.0136716-.0820311.0478517-.1367183.1845699-.1640622zm2.7070248-15.7089469c1.8593703 0 3.5820225.4374992 5.1679564 1.3124969s2.8300714 2.064448 3.732413 3.5683509c.9296855 1.55859 1.3945279 3.2675705 1.3945279 5.1269409 0 2.2695256-.6357407 4.2997942-1.907222 6.0908058-1.2714814 1.7910115-2.9326102 3.0283128-4.9833866 3.7119052-.2187492.0546871-.3896475.0273439-.5126941-.0820311-.1230465-.1093749-.1845698-.2460931-.1845698-.4101553v-3.4453042c0-.8749977-.2324216-1.5039029-.697264-1.8867143 1.0117165-.1093749 1.7636677-.2460932 2.255854-.4101553.7656234-.273437 1.3535124-.6835923 1.7636677-1.2304658.4648424-.7109356.6972639-1.6816366.6972639-2.9121024 0-.5195302-.0957027-.970701-.2871087-1.3535124-.1367182-.2734371-.3964836-.6152329-.779295-1.0253882.109375-.273437.1777338-.6015613.2050777-.9843726.0273439-.6015613-.0683595-1.203122-.2871087-1.8046832-.2734371-.0820311-.6562485-.0273439-1.1484348.1640621-.3281242.1367182-.7109356.3281242-1.1484348.5742173l-.5332018.3691398c-.8476544-.2460932-1.715816-.3691398-2.604486-.3691398s-1.7431599.1230466-2.5634704.3691398l-.5332019-.3691398c-.4374992-.2460931-.8339822-.4374991-1.1894503-.5742173-.4921863-.191406-.8613261-.2460932-1.1074192-.1640621-.2460932.6015612-.3417959 1.2031219-.2871087 1.8046832 0 .3828113.0546872.6972639.1640621.9433571-.3281242.4101553-.5673812.7861311-.7177717 1.127927-.1503905.3417958-.2255854.7724589-.2255854 1.2919891 0 1.2304658.2187492 2.1874946.6562484 2.8710869.3828114.5742174.9570288.9980443 1.7226522 1.2714813.4921863.1640621 1.2304658.3007804 2.2148384.4101553-.3554681.3281242-.5742174.7929667-.6562484 1.3945279-.4648424.2187493-.9160132.3007804-1.3535124.2460932-.7109356-.0546872-1.2578097-.4238269-1.6406211-1.1074192-.1640621-.3007804-.3828114-.5468735-.6562484-.7382795-.191406-.109375-.3964837-.2050777-.6152329-.2871087l-.2871087-.0410155c-.3007804 0-.458007.0478516-.4716786.1435543s.0478517.1982415.1845699.3076165l.2050776.1640621c.191406.1093749.3828114.2871087.5742174.5332018.1640621.191406.3007803.4101553.4101553.6562484l.1640621.3281243c.1367182.4101552.3964836.7246078.779295.9433571.3281242.191406.7246078.3144526 1.1894503.3691397.3281242.0273439.6699201.0136717 1.0253882-.0410155l.4511708-.0410155.0410155 2.5019471c0 .1640622-.0615233.3007804-.1845699.4101553-.1230466.109375-.2939448.1367182-.5126941.0820311-2.0781202-.6835924-3.7597568-1.9208937-5.0449098-3.7119052-1.285153-1.7910116-1.9277298-3.8212802-1.9277298-6.0908058 0-1.8593704.4374992-3.5546793 1.3124969-5.0859254s2.0781202-2.7343687 3.6093664-3.6093664c1.5312461-.8749977 3.2402266-1.3124969 5.1269409-1.3124969zm-6.0702981 14.1503569c.0546872-.0546871.1230466-.0410155.2050777.0410155.082031.0820311.0957027.1503905.0410155.2050777-.0546872.0546871-.1230466.0410155-.2050776-.0410155-.0820311-.0820311-.0957027-.1503905-.0410156-.2050777zm-.4511708-.3281242c.0546872-.0546872.1230466-.0615233.2050777-.0205078.082031.0410156.1093749.0957027.082031.1640621-.0273439.0683595-.0888672.075195-.1845698.0205078-.0957027-.0546872-.1298828-.1093749-.1025389-.1640621zm1.3535124 1.4355434c.0273439-.0273438.0683595-.0341793.1230466-.0205077.0546872.0136716.1025388.0410155.1435544.082031.0410155.0410156.0683594.0888672.082031.1435544.0136717.0546871.0068361.0957027-.0205077.1230466-.0820311.082031-.1777338.0683594-.2871087-.0410156-.0546872-.0546871-.0820311-.1093749-.0820311-.1640621 0-.0546871.0136716-.0957027.0410155-.1230466zm-.4921863-.5742173c.0546872-.0273439.1025388-.0341794.1435544-.0205078.0410155.0136716.0751949.0478517.1025388.1025388.082031.109375.082031.191406 0 .2460932-.0273439.0273439-.0615233.0273439-.1025388 0-.0410156-.0273439-.0888672-.0546872-.1435544-.0820311-.0546871-.1367182-.0546871-.2187492 0-.2460931z" fill="#eef0f2" fill-rule="evenodd" transform="translate(-13 -13)"/></svg>

<?xml version="1.0" encoding="UTF-8"?>
<svg width="21px" height="21px" viewBox="0 0 21 21" version="1.1" xmlns="http://www.w3.org/2000/svg" xmlns:xlink="http://www.w3.org/1999/xlink">
    <!-- Generator: Sketch 52.6 (67491) - http://www.bohemiancoding.com/sketch -->
    <title></title>
    <desc>Created with Sketch.</desc>
    <g id="Page-1" stroke="none" stroke-width="1" fill="none" fill-rule="evenodd">
        <g id="DESKTOP-1024PX" transform="translate(-23.000000, -6793.000000)" fill="#EEF0F2">
            <g id="FOOTER" transform="translate(0.000000, 6331.000000)">
                <g id="COLUMN-#1" transform="translate(10.000000, 63.000000)">
                    <g id="FOLLOW-US" transform="translate(0.000000, 339.000000)">
                        <g id="GITHUB" transform="translate(0.000000, 47.000000)">
                            <path d="M20.3085775,29.4082081 C20.3085775,29.5175831 20.2333826,29.5791064 20.0829921,29.592778 C19.9326016,29.6064496 19.8574067,29.5585986 19.8574067,29.4492236 C19.8574067,29.3398487 19.9257661,29.2851615 20.0624844,29.2851615 C20.1445154,29.2851615 20.2060387,29.2988332 20.2470542,29.3261771 C20.2880698,29.353521 20.3085775,29.3808642 20.3085775,29.4082081 Z M19.0370962,29.244146 C19.0644401,29.1347711 19.1464711,29.1005917 19.2831893,29.1416072 C19.4199076,29.1826227 19.4814308,29.2373099 19.4677592,29.3056693 C19.4540876,29.3740287 19.4199076,29.4218797 19.3652204,29.4492236 C19.3105332,29.4765675 19.2558454,29.4765675 19.2011583,29.4492236 C19.1464711,29.4218797 19.0986195,29.3877003 19.0576039,29.3466848 C19.0165884,29.3056693 19.0097523,29.2714899 19.0370962,29.244146 Z M20.8417794,29.1621149 C20.9784976,29.1621149 21.0536931,29.2031305 21.0673648,29.2851615 C21.0810364,29.3671926 21.0195131,29.435552 20.8827949,29.4902392 C20.8281077,29.4902392 20.7802561,29.483403 20.7392406,29.4697314 C20.698225,29.4560598 20.6708811,29.4082081 20.6572095,29.3261771 C20.6435379,29.244146 20.7050612,29.1894588 20.8417794,29.1621149 Z M23.5488042,13.453168 C25.4081745,13.453168 27.1308267,13.8906672 28.7167606,14.7656649 C30.3026945,15.6406626 31.546832,16.8301129 32.4491736,18.3340158 C33.3788591,19.8926058 33.8437015,21.6015863 33.8437015,23.4609567 C33.8437015,25.7304823 33.2079608,27.7607509 31.9364795,29.5517625 C30.6649981,31.342774 29.0038693,32.5800753 26.9530929,33.2636677 C26.7343437,33.3183548 26.5634454,33.2910116 26.4403988,33.1816366 C26.3173523,33.0722617 26.255829,32.9355435 26.255829,32.7714813 L26.255829,29.3261771 C26.255829,28.4511794 26.0234074,27.8222742 25.558565,27.4394628 C26.5702815,27.3300879 27.3222327,27.1933696 27.814419,27.0293075 C28.5800424,26.7558705 29.1679314,26.3457152 29.5780867,25.7988417 C30.0429291,25.0879061 30.2753506,24.1172051 30.2753506,22.8867393 C30.2753506,22.3672091 30.1796479,21.9160383 29.9882419,21.5332269 C29.8515237,21.2597898 29.5917583,20.917994 29.2089469,20.5078387 C29.3183219,20.2344017 29.3866807,19.9062774 29.4140246,19.5234661 C29.4413685,18.9219048 29.3456651,18.3203441 29.1269159,17.7187829 C28.8534788,17.6367518 28.4706674,17.691439 27.9784811,17.882845 C27.6503569,18.0195632 27.2675455,18.2109692 26.8300463,18.4570623 L26.2968445,18.8262021 C25.4491901,18.5801089 24.5810285,18.4570623 23.6923585,18.4570623 C22.8036885,18.4570623 21.9491986,18.5801089 21.1288881,18.8262021 L20.5956862,18.4570623 C20.158187,18.2109692 19.761704,18.0195632 19.4062359,17.882845 C18.9140496,17.691439 18.5449098,17.6367518 18.2988167,17.7187829 C18.0527235,18.3203441 17.9570208,18.9219048 18.011708,19.5234661 C18.011708,19.9062774 18.0663952,20.22073 18.1757701,20.4668232 C17.8476459,20.8769785 17.6083889,21.2529543 17.4579984,21.5947502 C17.3076079,21.936546 17.232413,22.3672091 17.232413,22.8867393 C17.232413,24.1172051 17.4511622,25.0742339 17.8886614,25.7578262 C18.2714728,26.3320436 18.8456902,26.7558705 19.6113136,27.0293075 C20.1034999,27.1933696 20.8417794,27.3300879 21.826152,27.4394628 C21.4706839,27.767587 21.2519346,28.2324295 21.1699036,28.8339907 C20.7050612,29.05274 20.2538904,29.1347711 19.8163912,29.0800839 C19.1054556,29.0253967 18.5585815,28.656257 18.1757701,27.9726647 C18.011708,27.6718843 17.7929587,27.4257912 17.5195217,27.2343852 C17.3281157,27.1250102 17.123038,27.0293075 16.9042888,26.9472765 L16.6171801,26.906261 C16.3163997,26.906261 16.1591731,26.9541126 16.1455015,27.0498153 C16.1318299,27.145518 16.1933532,27.2480568 16.3300714,27.3574318 L16.535149,27.5214939 C16.726555,27.6308688 16.9179604,27.8086026 17.1093664,28.0546957 C17.2734285,28.2461017 17.4101467,28.464851 17.5195217,28.7109441 L17.6835838,29.0390684 C17.820302,29.4492236 18.0800674,29.7636762 18.4628788,29.9824255 C18.791003,30.1738315 19.1874866,30.2968781 19.6523291,30.3515652 C19.9804533,30.3789091 20.3222492,30.3652369 20.6777173,30.3105497 L21.1288881,30.2695342 L21.1699036,32.7714813 C21.1699036,32.9355435 21.1083803,33.0722617 20.9853337,33.1816366 C20.8622871,33.2910116 20.6913889,33.3183548 20.4726396,33.2636677 C18.3945194,32.5800753 16.7128828,31.342774 15.4277298,29.5517625 C14.1425768,27.7607509 13.5,25.7304823 13.5,23.4609567 C13.5,21.6015863 13.9374992,19.9062774 14.8124969,18.3750313 C15.6874946,16.8437852 16.8906171,15.6406626 18.4218633,14.7656649 C19.9531094,13.8906672 21.6620899,13.453168 23.5488042,13.453168 Z M17.4785061,27.6035249 C17.5331933,27.5488378 17.6015527,27.5625094 17.6835838,27.6445404 C17.7656148,27.7265715 17.7792865,27.7949309 17.7245993,27.8496181 C17.6699121,27.9043052 17.6015527,27.8906336 17.5195217,27.8086026 C17.4374906,27.7265715 17.423819,27.6582121 17.4785061,27.6035249 Z M17.0273353,27.2754007 C17.0820225,27.2207135 17.1503819,27.2138774 17.232413,27.2548929 C17.314444,27.2959085 17.3417879,27.3505956 17.314444,27.418955 C17.2871001,27.4873145 17.2255768,27.49415 17.1298742,27.4394628 C17.0341715,27.3847756 16.9999914,27.3300879 17.0273353,27.2754007 Z M18.3808477,28.7109441 C18.4081916,28.6836003 18.4492072,28.6767648 18.5038943,28.6904364 C18.5585815,28.704108 18.6064331,28.7314519 18.6474487,28.7724674 C18.6884642,28.813483 18.7158081,28.8613346 18.7294797,28.9160218 C18.7431514,28.9707089 18.7363158,29.0117245 18.708972,29.0390684 C18.6269409,29.1210994 18.5312382,29.1074278 18.4218633,28.9980528 C18.3671761,28.9433657 18.3398322,28.8886779 18.3398322,28.8339907 C18.3398322,28.7793036 18.3535038,28.738288 18.3808477,28.7109441 Z M17.8886614,28.1367268 C17.9433486,28.1093829 17.9912002,28.1025474 18.0322158,28.116219 C18.0732313,28.1298906 18.1074107,28.1640707 18.1347546,28.2187578 C18.2167856,28.3281328 18.2167856,28.4101638 18.1347546,28.464851 C18.1074107,28.4921949 18.0732313,28.4921949 18.0322158,28.464851 C17.9912002,28.4375071 17.9433486,28.4101638 17.8886614,28.3828199 C17.8339743,28.2461017 17.8339743,28.1640707 17.8886614,28.1367268 Z" id=""></path>
                        </g>
                    </g>
                </g>
            </g>
        </g>
    </g>
</svg>
